X:3
T:Old Favorite
M:12/8
L:1/8
C:J-63
R:Slide
Z:Transcribed to abc by Mary Lou Knack
K:G
A|"G"~B3 BAB dBA G2B| ded d2B ded "D"~B2A|
"G"~B3 BAB dBA GAB| ded "D"cBA| "G"G3 G2z :|
|: "G"~g3 "D"~f3 "C"efe "G"edB| ded ~d2 B ded ~B2 d| "G"~g3 "D"~f3
"C"efe "G"edB|1 "D"dge dBA "G"G3 GBd :|2 "G"dge dge dge "D"dBA |]
